X:318
T:Roving Bachelor
Z: id:dc-reel-296
M:C
L:1/8
K:G Major
A|B2BA B2ge|d2ge dBGA|B2BA B2ge|dBAc BGG:|!
f|gfed edBd|gfed e3f|gfed efge|agfe dfaf|!
gfed edBd|gfed e3f|g2bg f2af|efge dBG|]!

